azure-patterns/svg-three-arrows.svg

<svg xmlns="http://www.w3.org/2000/svg" viewBox="0 0 49 48">
                                
                            
<rect opacity="0.6" x="0.488281" width="48" height="48" fill="white"></rect>
<path d="M29.4572 12.3471L25.523 8.41287C25.1392 8.02904 24.3715 8.02904 23.9877 8.41287L20.1494 12.2512C19.6696 12.7309 19.6696 13.4026 20.1494 13.8824C20.6292 14.3622 21.3009 14.3622 21.7807 13.8824L23.5079 12.1552V40.4626L25.9068 40.5585V12.2512L27.6341 13.9784C28.1138 14.4582 28.7855 14.4582 29.2653 13.9784L29.3613 13.8824C29.937 13.4986 29.937 12.8269 29.4572 12.3471Z" fill="#0078D4"></path>
<path d="M45.2905 19.1602H40.0129C39.3412 19.1602 38.8614 19.6399 38.8614 20.3116C38.8614 20.9833 39.3412 21.4631 40.0129 21.4631L42.028 21.5591L24.084 39.599L26.291 40.7505L44.0431 22.9984V25.4933C44.0431 26.165 44.5229 26.6448 45.1946 26.6448H45.2905C45.9622 26.6448 46.442 26.165 46.442 25.4933V20.2157C46.442 19.6399 45.9622 19.1602 45.2905 19.1602Z" fill="#1A1A1A"></path>
<path d="M7.48337 21.5591H9.49847C10.1702 21.5591 10.65 21.0793 10.65 20.4076V20.3116C10.65 19.6399 10.1702 19.1602 9.49847 19.1602H4.12487C3.54912 19.1602 3.06934 19.6399 3.06934 20.2157V25.4933C3.06934 26.165 3.54912 26.6448 4.22082 26.6448C4.89252 26.6448 5.37231 26.165 5.37231 25.4933L5.46827 22.9025L23.1244 40.5586C23.988 41.4222 25.3314 41.5182 26.291 40.7505L7.48337 21.5591Z" fill="#50E6FF"></path>
</svg>

<svg xmlns="http://www.w3.org/2000/svg" viewBox="0 0 49 48"><path opacity=".6" fill="#fff" d="M.488 0h48v48h-48z"/><path d="M29.457 12.347l-3.934-3.934c-.384-.384-1.151-.384-1.535 0l-3.839 3.838c-.48.48-.48 1.152 0 1.631.48.48 1.152.48 1.632 0l1.727-1.727v28.308l2.399.096V12.25l1.727 1.727c.48.48 1.151.48 1.631 0l.096-.096c.576-.383.576-1.055.096-1.535z" fill="#0078D4"/><path d="M45.29 19.16h-5.277c-.672 0-1.152.48-1.152 1.152 0 .671.48 1.151 1.152 1.151l2.015.096L24.084 39.6l2.207 1.152 17.752-17.753v2.495c0 .672.48 1.152 1.152 1.152h.096c.671 0 1.151-.48 1.151-1.152v-5.277c0-.576-.48-1.056-1.151-1.056z" fill="#1A1A1A"/><path d="M7.483 21.56h2.015c.672 0 1.152-.48 1.152-1.152v-.096c0-.672-.48-1.152-1.152-1.152H4.125c-.576 0-1.056.48-1.056 1.056v5.277c0 .672.48 1.152 1.152 1.152.672 0 1.151-.48 1.151-1.152l.096-2.59 17.656 17.656c.864.863 2.207.96 3.167.192L7.483 21.559z" fill="#50E6FF"/></svg>
